X: 43472
T: Yellow Haired Laddie, The
R: waltz
M: 3/4
K: Dmajor
|:DE|F2A2 Bc|d3 e f2|A2 BA GF|(F2E2) DE|F2A2 Bc|
d3/2c/ de f2|1 AB A/F3/2 E3/2D/|D4:|2 A2 gf ed|d4||
|:de|f4 gf ed|c2 ec BA|B3/2c/ dB AF|(F2E2) DE|
F2A2 Bc|d3/2c/ de f2|1 AB A/F3/2 E3/2D/|D4:|2 A2 gf ed|d4||

